X: 41125
T: Trip To The Market, The
R: reel
M: 4/4
K: Dmajor
fe|:dAAA dfab|afff defd|gBBB GBBB|ABce aAfe|
dAAA dfab|afff defd|gBBB GBBB|1 ABce d2 (3ABc:|2 ABce d3 c||
BFFF Bcdc|BGGG BcdB|ADDD A,DDD|EFAB cAdc|
BFFF BdcA|BGGG BcdB|ABce faAB|cefa fedc:|

